X:463
T:Two OClock in the Morning
C:
N:Transcribed by Tristan Scroggins Based on Michael Cleveland's version from "Flame Keeper"
R:bluegrass
L:1/8
Q:1/4=250
M:4/4
K:D
z6 FE |: DE FG Ac d2 | ef za f2 ef | za fe [dA]c [=c2A2] | [B8G8] | e3f e2 [e/^d/]e/e | 
ef ed cA BA | cB Ac BA Bc | dB AG FD FE | DE FG Ac d2 | ef za f2 ef | za fe [dA]c [=c2A2] | 
[B3G3]d B2 [e/^d/]e3/2 | z2 ef gf gf | ef ed cA BA |1 cB Ac BA B"* Last Time: to "c | 
dB AF D4 :|2 cB Ac BA c2 | [fc][fd] [fd][fe] [f4d4] |: e2 A2 e2 A2 | ef ed cB AF | 
E2 ^GB cB GB | AB cd e4 | e2 A2 e2 A2 | ef ed cB A^G | E2 ^GB cB GE |1 A3B A4 :|2 [c2A2] ^G2 [B4=G4] | 
dB AF D2 Ac | "Ending"df ed BA dB | AF EF D2 DE | FD EF DB, A,G, | A,2 C2 [D/C/]D/z3 | 


